!!!COM: Schiørring, Niels
!!!CDT: 1743-1798
!!!OPR@@DA: Choral-Bog
!!!ONM: 2
!!!OTL@@DA: Af Adams Fald er plat forderv’t
**kern	**fb	**kern	**kern	**kern	**kern	**kern	**kern	**kern
*part6	*part6	*part6	*part5	*part5	*part4	*part3	*part2	*part1
*staff8	*	*staff7	*staff6	*staff5	*staff4	*staff3	*staff2	*staff1
*clefF4	*	*clefC1	*clefF4	*clefC1	*clefF4	*clefC4	*clefC3	*clefC1
*mclefF4	*	*mclefG2	*mclefF4	*mclefG2	*mclefF4	*mclefGv2	*mclefG2	*mclefG2
*k[]	*	*k[]	*k[]	*k[]	*k[]	*k[]	*k[]	*k[]
*M4/4	*	*M4/4	*M4/4	*M4/4	*M4/4	*M4/4	*M4/4	*M4/4
*met(c)	*	*met(c)	*met(c)	*met(c)	*met(c)	*met(c)	*met(c)	*met(c)
*MM180	*	*MM180	*MM180	*MM180	*MM180	*MM180	*MM180	*MM180
*	*	*	*^	*^	*	*	*	*
=1	=1	=1	=1	=1	=1	=1	=1	=1	=1	=1
2D	.	2a	2d>	2D	2a	2f	2D	2d	2f	2a
=2	=2	=2	=2	=2	=2	=2	=2	=2	=2	=2
2F	6	2a	2A	2F	2a	2d	2F	2A	2d	2a
*	*	*	*	*	*^	*	*	*	*	*
2D	.	2a	2ryy	2D	2a	[2f	2d\	2D	2d	[2f	2a
=3	=3	=3	=3	=3	=3	=3	=3	=3	=3	=3	=3
2BB	6 5	2g	2ryy	2BB	2g	2f]	2d\	2BB	2d	2f]	2g
*	*	*	*	*	*v	*v	*	*	*	*	*
2C#X	6	2a	2A	2C#X	2a	2e	2C#X	2A	2e	2a
=4	=4	=4	=4	=4	=4	=4	=4	=4	=4	=4
2D	.	2f	2.A	2D	2f	2d	2D	2A	2d	2f
2AA	#	2em	.	2AA	2em	2c#X	2AA	(4A	2c#Xm	2em
.	.	.	4G	.	.	.	.	4G)	.	.
=5	=5	=5	=5	=5	=5	=5	=5	=5	=5	=5
2D;<	.	2d;	2F;y	2D;	2d;	2A;y	2D;	2F;	2d;	2d;
*	*	*	*	*	*^	*	*	*	*	*
2D	.	2a	2ryy	2D	2a	2f	2d	2D	2d	2f	2a
=6	=6	=6	=6	=6	=6	=6	=6	=6	=6	=6	=6
2AA	n	2cc	1ryy	2AA	2cc	2.a	2e\	2AA	2e	[2a	2cc
2BB	7	2dd	.	2BB	2dd	.	2d\	2BB	2d	(4a]	2dd
.	#6|	.	.	.	.	4g#X	.	.	.	4g#X)	.
=7	=7	=7	=7	=7	=7	=7	=7	=7	=7	=7	=7
2C	6	2a	1ryy	2C	2a	2e	2c\	2C	2e	2a	2a
2GG#X	6	2b	.	2GG#X	2b	2e	2B\	2GG#X	2B	2e	2b
*	*	*	*	*	*v	*v	*	*	*	*	*
=8	=8	=8	=8	=8	=8	=8	=8	=8	=8	=8
2AA	.	1cc	2A	2AA	1cc	1e	(2AA	(2A	1e	1cc
2C	.	.	2Gni	2C	.	.	2C)	2G)	.	.
=9	=9	=9	=9	=9	=9	=9	=9	=9	=9	=9
*	*	*	*	*	*	*^	*^	*	*	*
2FF;<	.	2a;	2F;y	2FF;	2a;	2f;y	2c\;y	2F;	2FF;y	2F;	2f;	2a;
*	*	*	*	*	*	*v	*v	*	*	*	*	*
*	*	*	*	*	*	*	*v	*v	*	*	*
=10:|!	=10:|!	=10:|!	=10:|!	=10:|!	=10:|!	=10:|!	=10:|!	=10:|!	=10:|!	=10:|!
2F	.	2cc	2A	2F	2cc	2f	2F	2A	2f	2cc
=11	=11	=11	=11	=11	=11	=11	=11	=11	=11	=11
2E	6	2cc	2G	2E	2cc	2g	2E	2G	2g	2cc
2C	.	2cc	2G	2C	2cc	2e	2C	2G	2e	2cc
=12	=12	=12	=12	=12	=12	=12	=12	=12	=12	=12
2F	.	2a	2A	2F	2a	2c	2F	2A	2c	2a
2D	.	2f	2A	2D	2f	[2f	2D	2A	[2f	2f
=13	=13	=13	=13	=13	=13	=13	=13	=13	=13	=13
1C	6 4	2a	2c	1C	2a	2f]	2C	2c	2f]	2a
.	5 3	2gM	2B-X	.	2gM	2e	2C	2B-X	2em	2gM
=14	=14	=14	=14	=14	=14	=14	=14	=14	=14	=14
*	*	*	*	*	*^	*	*^	*	*	*
2FF;<	.	2f;	1r;yy	2FF;	2f;	2c;y	2A\;y	2F;	2FF;	2A;	2f;	2f;
*	*	*	*	*	*	*	*	*v	*v	*	*	*
2F	.	2a	.	2F	2a	2c	2f	2F	2c	2f	2a
=15	=15	=15	=15	=15	=15	=15	=15	=15	=15	=15	=15
2C#X	5	2a	1ryy	2C#X	2a	2g	2e\	2C#X	2e	2g	2a
[2D	.	2a	.	[2D	2a	2f	2d\	[2D	2d	2f	2a
*	*	*	*	*	*v	*v	*	*	*	*	*
=16	=16	=16	=16	=16	=16	=16	=16	=16	=16	=16
2D]	-r6 4 2	2g	2B-X	2D]	2g	2e	2D]	2B-X	2e	2g
2C#X	6	2a	2A	2C#X	2a	2e	2C#X	2A	2e	2a
=17	=17	=17	=17	=17	=17	=17	=17	=17	=17	=17
2D	.	2f	2.A	2D	2f	2d	(2D	(2.A	(2d	(2f
2AA	#	2em	.	2AA	2em	2c#X	2AA)	.	2c#Xm)	2em)
.	.	.	4G	.	.	.	.	4G)	.	.
=18	=18	=18	=18	=18	=18	=18	=18	=18	=18	=18
2D;<	.	2d;	2F	2D;	2d;	2A;y	2D;	2F;	2d;	2d;
2D	.	2a	2F	2D	2a	2d	2D	2A	2f	2a
=19	=19	=19	=19	=19	=19	=19	=19	=19	=19	=19
4AA	6	2a	2F	4AA	2a	2c	(4AA	2c	2f	2a
4BB-X	.	.	.	4BB-X	.	.	4BB-X)	.	.	.
2C	.	2gM	2E	2C	2gM	2c	2C	2c	2em	2gM
=20	=20	=20	=20	=20	=20	=20	=20	=20	=20	=20
2F	.	2a	2F	2F	2a	2c	2F	2c	2f	2a
2D	6	2b	2F	2D	2b	2f	2D	2d	2f	2b
=21	=21	=21	=21	=21	=21	=21	=21	=21	=21	=21
2C	.	2cc	2G	2C	2cc	2e	2C	2e	2g	2cc
2D	#	2aM	4F#X	2D	2aM	2d	2D	(4d	2f#Xm	2aM
.	.	.	4c	.	.	.	.	4c)	.	.
=22	=22	=22	=22	=22	=22	=22	=22	=22	=22	=22
*	*	*	*	*	*^	*	*	*	*	*
2GG;<	.	2g;	1r;yy	2GG;	2g;	2d;y	2B\;y	2GG;	2B;	2g;	2g;
2BB	6	2dd	.	2BB	2dd	2g	2d\	2BB	2d	2g	2dd
*	*	*	*	*	*v	*v	*	*	*	*	*
=23	=23	=23	=23	=23	=23	=23	=23	=23	=23	=23
2C	.	2ee	2c	2C	2ee	2g	2C	2c	2g	2ee
2D	.	2dd	2A	2D	2dd	2f	2D	2A	2fnX	2dd
=24	=24	=24	=24	=24	=24	=24	=24	=24	=24	=24
2F	6	2a	2A	2F	2a	2d	2F	2A	2d	2a
2E	6 4	2cc	2A	2E	2cc	2e	2E	2A	2e	2cc
=25	=25	=25	=25	=25	=25	=25	=25	=25	=25	=25
2D	6 5	1bm	2.A	2D	1bm	2f	(2D	(2.A	(2f	1bm
2E	4	.	.	2E	.	2e	2E)	.	2e)	.
.	#	.	4G#X	.	.	.	.	4G#X)	.	.
=26	=26	=26	=26	=26	=26	=26	=26	=26	=26	=26
*	*	*	*	*	*	*^	*	*	*	*
2AA;<	.	2a;	2A;y	2AA;	2a;	2c;y	2e/;y	2AA;	2A;	2c;	2a;
*	*	*	*v	*v	*	*	*	*	*	*	*
*	*	*	*	*v	*v	*v	*	*	*	*
==	==	==	==	==	==	==	==	==
*-	*-	*-	*-	*-	*-	*-	*-	*-
!!!system-decoration: {(s1,s2,s3,s4)}{(s5,s6)}{(s7,s8)}
!!!RDF**kern: i = editorial accidental
!!!RDF**kern: > = above
!!!RDF**kern: < = below
!!!AGN: chorale
!!!EED: Derek Remeš
!!!EED2: Victor Phan
!!!END: 2023/11/28
!!!ENC: Wolfgang Drescher
!!!EEV: 2023/11/30
!!!title: @{ONM}. @{OTL}